X:155
T:Just in the Height of Her Bloom
R:song
C:traditional
S:internet : Allen Garvin's Online Version of Joyce's "Old Irish Folk Music and Songs"
B:Joyce, P. W. : "Old Irish Folk Music and Songs"
O:Irish
Z:id:Eckert-song-155 Robert Eckert <Robert@WHISTLEPLAYERS.ZZN.COM> irtrad-l 2001-7-19
M:9/8
L:1/8
%Q:3/8=140
K:G
d/c/ | BAG GEG GEG | BAG EFG A2c | BAG GEG GAB | cBA BGE D2 || c |
Bcd ded dBG | Bcd edB A2c | Bcd ded dBG | cBA BGE D2 || Hd/c/ |
BAG GEG GEG | BAG EFG A2c | BAG GEG GAB | cBA BGE D2 |]
